storage/app/icons/phosphoricons/duotone/traffic-signal-duotone.svg

<svg xmlns="http://www.w3.org/2000/svg" fill="currentColor" viewBox="0 0 256 256"><path d="M184 32H72a8 8 0 0 0-8 8v176a8 8 0 0 0 8 8h112a8 8 0 0 0 8-8V40a8 8 0 0 0-8-8m-56 160a24 24 0 1 1 24-24 24 24 0 0 1-24 24m0-80a24 24 0 1 1 24-24 24 24 0 0 1-24 24" opacity=".2"/><path d="M128 56a32 32 0 1 0 32 32 32 32 0 0 0-32-32m0 48a16 16 0 1 1 16-16 16 16 0 0 1-16 16m0 32a32 32 0 1 0 32 32 32 32 0 0 0-32-32m0 48a16 16 0 1 1 16-16 16 16 0 0 1-16 16m88-40h-16V80h16a8 8 0 0 0 0-16h-16V40a16 16 0 0 0-16-16H72a16 16 0 0 0-16 16v24H40a8 8 0 0 0 0 16h16v64H40a8 8 0 0 0 0 16h16v56a16 16 0 0 0 16 16h112a16 16 0 0 0 16-16v-56h16a8 8 0 0 0 0-16m-32 72H72V40h112z"/></svg>

<svg xmlns="http://www.w3.org/2000/svg" viewBox="0 0 256 256" fill="currentColor"><path d="M184,32H72a8,8,0,0,0-8,8V216a8,8,0,0,0,8,8H184a8,8,0,0,0,8-8V40A8,8,0,0,0,184,32ZM128,192a24,24,0,1,1,24-24A24,24,0,0,1,128,192Zm0-80a24,24,0,1,1,24-24A24,24,0,0,1,128,112Z" opacity="0.2"/><path d="M128,56a32,32,0,1,0,32,32A32,32,0,0,0,128,56Zm0,48a16,16,0,1,1,16-16A16,16,0,0,1,128,104Zm0,32a32,32,0,1,0,32,32A32,32,0,0,0,128,136Zm0,48a16,16,0,1,1,16-16A16,16,0,0,1,128,184Zm88-40H200V80h16a8,8,0,0,0,0-16H200V40a16,16,0,0,0-16-16H72A16,16,0,0,0,56,40V64H40a8,8,0,0,0,0,16H56v64H40a8,8,0,0,0,0,16H56v56a16,16,0,0,0,16,16H184a16,16,0,0,0,16-16V160h16a8,8,0,0,0,0-16Zm-32,72H72V40H184V216Z"/></svg>
